X:10
P:Heike Nagorny - Reel
C:Anselm Lingnau
M:C|
K:D
A2|"D"d2 AG "Bm"FDEF|"Em"GFED "A"CE A2|\
 "G"B,2 B,D "D/F#"A,DFA|"Em"GAGF "A7"E2 A2|
 "D"d2 AG FAFD|"G"B,DGB "D7/F#"ADFA|\
 "G"d2 cB "D/F#"Adfa|"Em"eB "A7"cA "D"d2||
A2|"D"d2 fd "A"cecA|"G"BAGB "D/F#"AdFD|\
 "Em"G2 BG "D"FAdf|"Em"efed "A7"c2 A2|
 "D"d2 fd "F#m"cBAc|"G"B2 dB "D7"AdFA|\
 "G"d2 cB "D/F#"Adfa|"Em"eB"A7"cA "D"d2|]
